X: 0
T: The Cook In The Kitchen
C: Trad.
R: jig
M: 6/8
L: 1/8
K: Gmaj
|:E|"G"DGG GFG|"D5"=FDE ~F3|"G"DGG GFG|"D"A2 d cAG|
"G"DGG GFG|"D5"=FDE F2 d|"C"cAG "D"FGA|"G"BGF G2:|
|:A|"G"~B3 BAG|"D"~A3 AGF|"G"~G3 GFG|A2 d "D"cAG|
"G"~B3 BAG|"D"~A3 A2 d|"C"cAG "D"FGA|"G"BGF G2:|
|:B|"D"d2 e f2 g|a2 g fed|"C"cAG FGA|"G"B/c/dB cAG|
"D"d2 e f2 g|a2 g fed|"C"cAG "D"FGA|"G"BGF G2:| 